svg/clockface/clockfacesolid/clock_05_20.svg

<?xml version="1.0" encoding="UTF-8" standalone="no"?>
<svg
   height="1000"
   width="1000"
   version="1.1"
   id="h00m00"
   viewBox="0 0 1000 1000"
   sodipodi:docname="solid_clock_05_20.svg"
   xmlns:inkscape="http://www.inkscape.org/namespaces/inkscape"
   xmlns:sodipodi="http://sodipodi.sourceforge.net/DTD/sodipodi-0.dtd"
   xmlns="http://www.w3.org/2000/svg"
   xmlns:svg="http://www.w3.org/2000/svg">
  <defs
     id="defs10" />
  <sodipodi:namedview
     id="namedview8"
     pagecolor="#505050"
     bordercolor="#ffffff"
     borderopacity="1"
     inkscape:showpageshadow="0"
     inkscape:pageopacity="0"
     inkscape:pagecheckerboard="1"
     inkscape:deskcolor="#505050" />
  <path
     id="path14"
     style="color:#000000;fill:#000000;stroke-width:60;-inkscape-stroke:none"
     d="M 500 130 C 296.01059 130 130 296.01059 130 500 C 130 703.98941 296.01059 870 500 870 C 703.98941 870 870 703.98941 870 500 C 870 296.01059 703.98941 130 500 130 z M 500.98242 470.02148 A 30.003 30.003 0 0 1 515 474.01953 L 748.82617 609.01953 A 30 30 0 0 1 759.80859 650 A 30 30 0 0 1 718.82617 660.98047 L 581.96094 581.96094 L 615.98047 640.88477 A 30 30 0 0 1 605 681.86523 A 30 30 0 0 1 564.01953 670.88477 L 474.01953 515 A 30.003 30.003 0 0 1 470.26172 496.08594 A 30.003 30.003 0 0 1 500.98242 470.02148 z " />
</svg>

<svg xmlns="http://www.w3.org/2000/svg" width="1000" height="1000"><path d="M500 130c-203.99 0-370 166.01-370 370s166.01 370 370 370 370-166.01 370-370-166.01-370-370-370zm.982 340.021A30.003 30.003 0 0 1 515 474.02l233.826 135A30 30 0 0 1 759.81 650a30 30 0 0 1-40.983 10.98l-136.865-79.02 34.02 58.925A30 30 0 0 1 605 681.865a30 30 0 0 1-40.98-10.98L474.02 515a30.003 30.003 0 0 1-3.758-18.914 30.003 30.003 0 0 1 30.72-26.065z" style="-inkscape-stroke:none" stroke-width="60"/></svg>
